assets/images/afrikons/pause-outline.svg

<svg viewBox="0 0 50 50" xmlns="http://www.w3.org/2000/svg"><path d="m46.1 50h-42.2a3.91 3.91 0 0 1 -3.9-3.9v-42.2a3.91 3.91 0 0 1 3.9-3.9h42.2a3.91 3.91 0 0 1 3.9 3.9v42.2a3.91 3.91 0 0 1 -3.9 3.9zm-42.2-47.4a1.31 1.31 0 0 0 -1.3 1.3v42.2a1.31 1.31 0 0 0 1.3 1.3h42.2a1.31 1.31 0 0 0 1.3-1.3v-42.2a1.31 1.31 0 0 0 -1.3-1.3z" fill="#0a0a0a"/></svg>

<svg xmlns="http://www.w3.org/2000/svg" viewBox="0 0 50 50"><defs><style>.cls-1{fill:#0a0a0a;}</style></defs><title>pause-outline</title><g id="Layer_2" data-name="Layer 2"><g id="Layer_1-2" data-name="Layer 1"><path class="cls-1" d="M46.1,50H3.9A3.91,3.91,0,0,1,0,46.1V3.9A3.91,3.91,0,0,1,3.9,0H46.1A3.91,3.91,0,0,1,50,3.9V46.1A3.91,3.91,0,0,1,46.1,50ZM3.9,2.6A1.31,1.31,0,0,0,2.6,3.9V46.1a1.31,1.31,0,0,0,1.3,1.3H46.1a1.31,1.31,0,0,0,1.3-1.3V3.9a1.31,1.31,0,0,0-1.3-1.3Z"/></g></g></svg>
